www/assets/icons/lan.svg

<svg xmlns="http://www.w3.org/2000/svg" width="24" height="24" viewBox="0 0 24 24" fill='currentColor'><path d="M13 22h8v-7h-3v-4h-5V9h3V2H8v7h3v2H6v4H3v7h8v-7H8v-2h8v2h-3z"/></svg>

<svg width="24" height="24" viewBox="0 0 24 24" xmlns="http://www.w3.org/2000/svg" fill='currentColor'><path d="M13 22H21V15H18V11H13V9H16V2H8V9H11V11H6V15H3V22H11V15H8V13H16V15H13V22Z"/></svg>
